public/footer-grid.svg

<svg width="1260" height="863" viewBox="0 0 1260 863" fill="none" xmlns="http://www.w3.org/2000/svg">
<path d="M308.031 502.47H215.452V599.235H308.031V502.47Z" fill="url(#paint0_radial_1_67)" fill-opacity="0.06"/>
<path d="M678.346 212.176H585.767V308.941H678.346V212.176Z" fill="url(#paint1_radial_1_67)" fill-opacity="0.06"/>
<path d="M585.767 792.762H493.188V889.527H585.767V792.762Z" fill="url(#paint2_radial_1_67)" fill-opacity="0.06"/>
<path d="M956.083 599.234H863.504V695.998H956.083V599.234Z" fill="url(#paint3_radial_1_67)" fill-opacity="0.06"/>
<path d="M678.347 502.47H585.768V599.235H678.347V502.47Z" fill="url(#paint4_radial_1_67)" fill-opacity="0.06"/>
<path d="M30.2932 -174.881H-62.2859V-78.1159M30.2932 -174.881V-78.1159M30.2932 -174.881H122.872M-62.2859 -78.1159H30.2932M-62.2859 -78.1159V18.6476M30.2932 -78.1159H122.872M30.2932 -78.1159V18.6476M122.872 -174.881V-78.1159M122.872 -174.881H215.451M122.872 -78.1159H215.451M122.872 -78.1159V18.6476M30.2932 18.6476H-62.2859M30.2932 18.6476H122.872M30.2932 18.6476V115.412M-62.2859 18.6476V115.412M215.451 -174.881V-78.1159M215.451 -174.881H308.03M215.451 -78.1159H308.03M215.451 -78.1159V18.6476M122.872 18.6476H215.451M122.872 18.6476V115.412M308.03 -174.881V-78.1159M308.03 -174.881H400.609M308.03 -78.1159H400.609M308.03 -78.1159V18.6476M215.451 18.6476H308.03M215.451 18.6476V115.412M400.609 -174.881V-78.1159M400.609 -174.881H493.188M400.609 -78.1159H493.188M400.609 -78.1159V18.6476M308.03 18.6476H400.609M308.03 18.6476V115.412M493.188 -174.881V-78.1159M493.188 -174.881H585.767M493.188 -78.1159H585.767M493.188 -78.1159V18.6476M400.609 18.6476H493.188M400.609 18.6476V115.412M585.767 -174.881V-78.1159M585.767 -174.881H678.346M585.767 -78.1159H678.346M585.767 -78.1159V18.6476M493.188 18.6476H585.767M493.188 18.6476V115.412M678.346 -174.881V-78.1159M678.346 -174.881H770.925M678.346 -78.1159H770.925M678.346 -78.1159V18.6476M585.767 18.6476H678.346M585.767 18.6476V115.412M770.925 -174.881V-78.1159M770.925 -174.881H863.505M770.925 -78.1159H863.505M770.925 -78.1159V18.6476M678.346 18.6476H770.925M678.346 18.6476V115.412M863.505 -174.881V-78.1159M863.505 -174.881H956.084M863.505 -78.1159H956.084M863.505 -78.1159V18.6476M770.925 18.6476H863.505M770.925 18.6476V115.412M956.084 -174.881V-78.1159M956.084 -174.881H1048.66M956.084 -78.1159H1048.66M956.084 -78.1159V18.6476M863.505 18.6476H956.084M863.505 18.6476V115.412M1048.66 -174.881V-78.1159M1048.66 -174.881H1141.24M1048.66 -78.1159H1141.24M1048.66 -78.1159V18.6476M956.084 18.6476H1048.66M956.084 18.6476V115.412M1141.24 -174.881V-78.1159M1141.24 -174.881H1233.82M1141.24 -78.1159H1233.82M1141.24 -78.1159V18.6476M1048.66 18.6476H1141.24M1048.66 18.6476V115.412M1233.82 -174.881V-78.1159M1233.82 -174.881H1326.4V-78.1159M1233.82 -78.1159H1326.4M1233.82 -78.1159V18.6476M1141.24 18.6476H1233.82M1141.24 18.6476V115.412M1326.4 -78.1159V18.6476M1233.82 18.6476H1326.4M1233.82 18.6476V115.412M1326.4 18.6476V115.412M30.2932 115.412H-62.2859M30.2932 115.412H122.872M30.2932 115.412V212.176M-62.2859 115.412V212.176M122.872 115.412H215.451M122.872 115.412V212.176M215.451 115.412H308.03M215.451 115.412V212.176M308.03 115.412H400.609M308.03 115.412V212.176M400.609 115.412H493.188M400.609 115.412V212.176M493.188 115.412H585.767M493.188 115.412V212.176M585.767 115.412H678.346M585.767 115.412V212.176M678.346 115.412H770.925M678.346 115.412V212.176M770.925 115.412H863.505M770.925 115.412V212.176M863.505 115.412H956.084M863.505 115.412V212.176M956.084 115.412H1048.66M956.084 115.412V212.176M1048.66 115.412H1141.24M1048.66 115.412V212.176M1141.24 115.412H1233.82M1141.24 115.412V212.176M1233.82 115.412H1326.4M1233.82 115.412V212.176M1326.4 115.412V212.176M30.2932 212.176H-62.2859M30.2932 212.176H122.872M30.2932 212.176V308.941M-62.2859 212.176V308.941M122.872 212.176H215.451M122.872 212.176V308.941M215.451 212.176H308.03M215.451 212.176V308.941M308.03 212.176H400.609M308.03 212.176V308.941M400.609 212.176H493.188M400.609 212.176V308.941M493.188 212.176H585.767M493.188 212.176V308.941M585.767 212.176H678.346M585.767 212.176V308.941M678.346 212.176H770.925M678.346 212.176V308.941M770.925 212.176H863.505M770.925 212.176V308.941M863.505 212.176H956.084M863.505 212.176V308.941M956.084 212.176H1048.66M956.084 212.176V308.941M1048.66 212.176H1141.24M1048.66 212.176V308.941M1141.24 212.176H1233.82M1141.24 212.176V308.941M1233.82 212.176H1326.4M1233.82 212.176V308.941M1326.4 212.176V308.941M30.2932 308.941H-62.2859M30.2932 308.941H122.872M30.2932 308.941V405.706M-62.2859 308.941V405.706M122.872 308.941H215.451M122.872 308.941V405.706M215.451 308.941H308.03M215.451 308.941V405.706M308.03 308.941H400.609M308.03 308.941V405.706M400.609 308.941H493.188M400.609 308.941V405.706M493.188 308.941H585.767M493.188 308.941V405.706M585.767 308.941H678.346M585.767 308.941V405.706M678.346 308.941H770.925M678.346 308.941V405.706M770.925 308.941H863.505M770.925 308.941V405.706M863.505 308.941H956.084M863.505 308.941V405.706M956.084 308.941H1048.66M956.084 308.941V405.706M1048.66 308.941H1141.24M1048.66 308.941V405.706M1141.24 308.941H1233.82M1141.24 308.941V405.706M1233.82 308.941H1326.4M1233.82 308.941V405.706M1326.4 308.941V405.706M30.2932 405.706H-62.2859M30.2932 405.706H122.872M30.2932 405.706V502.469M-62.2859 405.706V502.469M122.872 405.706H215.451M122.872 405.706V502.469M215.451 405.706H308.03M215.451 405.706V502.469M308.03 405.706H400.609M308.03 405.706V502.469M400.609 405.706H493.188M400.609 405.706V502.469M493.188 405.706H585.767M493.188 405.706V502.469M585.767 405.706H678.346M585.767 405.706V502.469M678.346 405.706H770.925M678.346 405.706V502.469M770.925 405.706H863.505M770.925 405.706V502.469M863.505 405.706H956.084M863.505 405.706V502.469M956.084 405.706H1048.66M956.084 405.706V502.469M1048.66 405.706H1141.24M1048.66 405.706V502.469M1141.24 405.706H1233.82M1141.24 405.706V502.469M1233.82 405.706H1326.4M1233.82 405.706V502.469M1326.4 405.706V502.469M30.2932 502.469H-62.2859M30.2932 502.469H122.872M30.2932 502.469V599.234M-62.2859 502.469V599.234M122.872 502.469H215.451M122.872 502.469V599.234M215.451 502.469H308.03M215.451 502.469V599.234M308.03 502.469H400.609M308.03 502.469V599.234M400.609 502.469H493.188M400.609 502.469V599.234M493.188 502.469H585.767M493.188 502.469V599.234M585.767 502.469H678.346M585.767 502.469V599.234M678.346 502.469H770.925M678.346 502.469V599.234M770.925 502.469H863.505M770.925 502.469V599.234M863.505 502.469H956.084M863.505 502.469V599.234M956.084 502.469H1048.66M956.084 502.469V599.234M1048.66 502.469H1141.24M1048.66 502.469V599.234M1141.24 502.469H1233.82M1141.24 502.469V599.234M1233.82 502.469H1326.4M1233.82 502.469V599.234M1326.4 502.469V599.234M30.2932 599.234H-62.2859M30.2932 599.234H122.872M30.2932 599.234V695.998M-62.2859 599.234V695.998M122.872 599.234H215.451M122.872 599.234V695.998M215.451 599.234H308.03M215.451 599.234V695.998M308.03 599.234H400.609M308.03 599.234V695.998M400.609 599.234H493.188M400.609 599.234V695.998M493.188 599.234H585.767M493.188 599.234V695.998M585.767 599.234H678.346M585.767 599.234V695.998M678.346 599.234H770.925M678.346 599.234V695.998M770.925 599.234H863.505M770.925 599.234V695.998M863.505 599.234H956.084M863.505 599.234V695.998M956.084 599.234H1048.66M956.084 599.234V695.998M1048.66 599.234H1141.24M1048.66 599.234V695.998M1141.24 599.234H1233.82M1141.24 599.234V695.998M1233.82 599.234H1326.4M1233.82 599.234V695.998M1326.4 599.234V695.998M30.2932 695.998H-62.2859M30.2932 695.998H122.872M30.2932 695.998V792.763M-62.2859 695.998V792.763M122.872 695.998H215.451M122.872 695.998V792.763M215.451 695.998H308.03M215.451 695.998V792.763M308.03 695.998H400.609M308.03 695.998V792.763M400.609 695.998H493.188M400.609 695.998V792.763M493.188 695.998H585.767M493.188 695.998V792.763M585.767 695.998H678.346M585.767 695.998V792.763M678.346 695.998H770.925M678.346 695.998V792.763M770.925 695.998H863.505M770.925 695.998V792.763M863.505 695.998H956.084M863.505 695.998V792.763M956.084 695.998H1048.66M956.084 695.998V792.763M1048.66 695.998H1141.24M1048.66 695.998V792.763M1141.24 695.998H1233.82M1141.24 695.998V792.763M1233.82 695.998H1326.4M1233.82 695.998V792.763M1326.4 695.998V792.763M30.2932 792.763H-62.2859M30.2932 792.763H122.872M30.2932 792.763V889.528M-62.2859 792.763V889.528M122.872 792.763H215.451M122.872 792.763V889.528M215.451 792.763H308.03M215.451 792.763V889.528M308.03 792.763H400.609M308.03 792.763V889.528M400.609 792.763H493.188M400.609 792.763V889.528M493.188 792.763H585.767M493.188 792.763V889.528M585.767 792.763H678.346M585.767 792.763V889.528M678.346 792.763H770.925M678.346 792.763V889.528M770.925 792.763H863.505M770.925 792.763V889.528M863.505 792.763H956.084M863.505 792.763V889.528M956.084 792.763H1048.66M956.084 792.763V889.528M1048.66 792.763H1141.24M1048.66 792.763V889.528M1141.24 792.763H1233.82M1141.24 792.763V889.528M1233.82 792.763H1326.4M1233.82 792.763V889.528M1326.4 792.763V889.528M30.2932 889.528H-62.2859M30.2932 889.528H122.872M30.2932 889.528V986.291M-62.2859 889.528V986.291M122.872 889.528H215.451M122.872 889.528V986.291M215.451 889.528H308.03M215.451 889.528V986.291M308.03 889.528H400.609M308.03 889.528V986.291M400.609 889.528H493.188M400.609 889.528V986.291M493.188 889.528H585.767M493.188 889.528V986.291M585.767 889.528H678.346M585.767 889.528V986.291M678.346 889.528H770.925M678.346 889.528V986.291M770.925 889.528H863.505M770.925 889.528V986.291M863.505 889.528H956.084M863.505 889.528V986.291M956.084 889.528H1048.66M956.084 889.528V986.291M1048.66 889.528H1141.24M1048.66 889.528V986.291M1141.24 889.528H1233.82M1141.24 889.528V986.291M1233.82 889.528H1326.4M1233.82 889.528V986.291M1326.4 889.528V986.291M30.2932 986.291H-62.2859M30.2932 986.291H122.872M30.2932 986.291V1083.06M-62.2859 986.291V1083.06M122.872 986.291H215.451M122.872 986.291V1083.06M215.451 986.291H308.03M215.451 986.291V1083.06M308.03 986.291H400.609M308.03 986.291V1083.06M400.609 986.291H493.188M400.609 986.291V1083.06M493.188 986.291H585.767M493.188 986.291V1083.06M585.767 986.291H678.346M585.767 986.291V1083.06M678.346 986.291H770.925M678.346 986.291V1083.06M770.925 986.291H863.505M770.925 986.291V1083.06M863.505 986.291H956.084M863.505 986.291V1083.06M956.084 986.291H1048.66M956.084 986.291V1083.06M1048.66 986.291H1141.24M1048.66 986.291V1083.06M1141.24 986.291H1233.82M1141.24 986.291V1083.06M1233.82 986.291H1326.4M1233.82 986.291V1083.06M1326.4 986.291V1083.06M30.2932 1083.06H-62.2859M30.2932 1083.06H122.872M30.2932 1083.06V1179.82M-62.2859 1083.06V1179.82M122.872 1083.06H215.451M122.872 1083.06V1179.82M215.451 1083.06H308.03M215.451 1083.06V1179.82M308.03 1083.06H400.609M308.03 1083.06V1179.82M400.609 1083.06H493.188M400.609 1083.06V1179.82M493.188 1083.06H585.767M493.188 1083.06V1179.82M585.767 1083.06H678.346M585.767 1083.06V1179.82M678.346 1083.06H770.925M678.346 1083.06V1179.82M770.925 1083.06H863.505M770.925 1083.06V1179.82M863.505 1083.06H956.084M863.505 1083.06V1179.82M956.084 1083.06H1048.66M956.084 1083.06V1179.82M1048.66 1083.06H1141.24M1048.66 1083.06V1179.82M1141.24 1083.06H1233.82M1141.24 1083.06V1179.82M1233.82 1083.06H1326.4M1233.82 1083.06V1179.82M1326.4 1083.06V1179.82M30.2932 1179.82H-62.2859M30.2932 1179.82H122.872M30.2932 1179.82V1276.58M-62.2859 1179.82V1276.58H30.2932M122.872 1179.82H215.451M122.872 1179.82V1276.58M215.451 1179.82H308.03M215.451 1179.82V1276.58M308.03 1179.82H400.609M308.03 1179.82V1276.58M400.609 1179.82H493.188M400.609 1179.82V1276.58M493.188 1179.82H585.767M493.188 1179.82V1276.58M585.767 1179.82H678.346M585.767 1179.82V1276.58M678.346 1179.82H770.925M678.346 1179.82V1276.58M770.925 1179.82H863.505M770.925 1179.82V1276.58M863.505 1179.82H956.084M863.505 1179.82V1276.58M956.084 1179.82H1048.66M956.084 1179.82V1276.58M1048.66 1179.82H1141.24M1048.66 1179.82V1276.58M1141.24 1179.82H1233.82M1141.24 1179.82V1276.58M1233.82 1179.82H1326.4M1233.82 1179.82V1276.58M1326.4 1179.82V1276.58H1233.82M30.2932 1276.58H122.872M122.872 1276.58H215.451M215.451 1276.58H308.03M308.03 1276.58H400.609M400.609 1276.58H493.188M493.188 1276.58H585.767M585.767 1276.58H678.346M678.346 1276.58H770.925M770.925 1276.58H863.505M863.505 1276.58H956.084M956.084 1276.58H1048.66M1048.66 1276.58H1141.24M1141.24 1276.58H1233.82" stroke="url(#paint5_radial_1_67)" stroke-opacity="0.2"/>
<defs>
<radialGradient id="paint0_radial_1_67" cx="0" cy="0" r="1" gradientUnits="userSpaceOnUse" gradientTransform="translate(263.361 601.534) rotate(90.677) scale(68.5865 119.024)">
<stop stopColor="white" stop-opacity="0.8"/>
<stop offset="1" stopColor="#05041F"/>
</radialGradient>
<radialGradient id="paint1_radial_1_67" cx="0" cy="0" r="1" gradientUnits="userSpaceOnUse" gradientTransform="translate(632.686 310.266) rotate(90) scale(72.8153 126.361)">
<stop stopColor="white" stop-opacity="0.8"/>
<stop offset="1" stopColor="#05041F"/>
</radialGradient>
<radialGradient id="paint2_radial_1_67" cx="0" cy="0" r="1" gradientUnits="userSpaceOnUse" gradientTransform="translate(539.591 887.716) rotate(91.981) scale(70.317 122.039)">
<stop stopColor="white" stop-opacity="0.8"/>
<stop offset="1" stopColor="#05041F"/>
</radialGradient>
<radialGradient id="paint3_radial_1_67" cx="0" cy="0" r="1" gradientUnits="userSpaceOnUse" gradientTransform="translate(912.224 697.208) rotate(90.6768) scale(68.5866 119.024)">
<stop stopColor="white" stop-opacity="0.8"/>
<stop offset="1" stopColor="#05041F"/>
</radialGradient>
<radialGradient id="paint4_radial_1_67" cx="0" cy="0" r="1" gradientUnits="userSpaceOnUse" gradientTransform="translate(632.751 599.839) rotate(90) scale(74.5086 129.299)">
<stop stopColor="white" stop-opacity="0.8"/>
<stop offset="1" stopColor="#05041F"/>
</radialGradient>
<radialGradient id="paint5_radial_1_67" cx="0" cy="0" r="1" gradientUnits="userSpaceOnUse" gradientTransform="translate(632.832 551.457) rotate(90) scale(513.94 491.711)">
<stop stopColor="white"/>
<stop offset="1" stopColor="white" stop-opacity="0"/>
</radialGradient>
</defs>
</svg>

<svg width="1260" height="863" viewBox="0 0 1260 863" fill="none" xmlns="http://www.w3.org/2000/svg">
  <path d="M308.031 502.47h-92.579v96.765h92.579z" fill="url(#a)" fill-opacity=".1"/>
  <path d="M678.346 212.176h-92.579v96.765h92.579z" fill="url(#b)" fill-opacity=".1"/>
  <path d="M585.767 792.762h-92.579v96.765h92.579z" fill="url(#c)" fill-opacity=".1"/>
  <path d="M956.083 599.234h-92.579v96.764h92.579z" fill="url(#d)" fill-opacity=".1"/>
  <path d="M678.347 502.47h-92.579v96.765h92.579z" fill="url(#e)" fill-opacity=".1"/>
  <path d="M30.293-174.881h-92.579v96.765m92.58-96.765v96.765m0-96.765h92.578M-62.286-78.116h92.58m-92.58 0v96.764m92.58-96.764h92.578m-92.579 0v96.764m92.579-193.529v96.765m0-96.765h92.579m-92.579 96.765h92.579m-92.579 0v96.764m-92.579 0h-92.579m92.58 0h92.578m-92.579 0v96.764m-92.579-96.764v96.764m277.737-290.293v96.765m0-96.765h92.579m-92.579 96.765h92.579m-92.579 0v96.764m-92.579 0h92.579m-92.579 0v96.764M308.03-174.881v96.765m0-96.765h92.579M308.03-78.116h92.579m-92.579 0v96.764m-92.579 0h92.579m-92.579 0v96.764m185.158-290.293v96.765m0-96.765h92.579m-92.579 96.765h92.579m-92.579 0v96.764m-92.579 0h92.579m-92.579 0v96.764m185.158-290.293v96.765m0-96.765h92.579m-92.579 96.765h92.579m-92.579 0v96.764m-92.579 0h92.579m-92.579 0v96.764m185.158-290.293v96.765m0-96.765h92.579m-92.579 96.765h92.579m-92.579 0v96.764m-92.579 0h92.579m-92.579 0v96.764m185.158-290.293v96.765m0-96.765h92.579m-92.579 96.765h92.579m-92.579 0v96.764m-92.579 0h92.579m-92.579 0v96.764m185.158-290.293v96.765m0-96.765h92.58m-92.58 96.765h92.58m-92.58 0v96.764m-92.579 0h92.579m-92.579 0v96.764m185.159-290.293v96.765m0-96.765h92.579m-92.579 96.765h92.579m-92.579 0v96.764m-92.58 0h92.58m-92.58 0v96.764m185.159-290.293v96.765m0-96.765h92.576m-92.576 96.765h92.576m-92.576 0v96.764m-92.579 0h92.579m-92.579 0v96.764m185.155-290.293v96.765m0-96.765h92.58m-92.58 96.765h92.58m-92.58 0v96.764m-92.576 0h92.576m-92.576 0v96.764m185.156-290.293v96.765m0-96.765h92.58m-92.58 96.765h92.58m-92.58 0v96.764m-92.58 0h92.58m-92.58 0v96.764m185.16-290.293v96.765m0-96.765h92.58v96.765m-92.58 0h92.58m-92.58 0v96.764m-92.58 0h92.58m-92.58 0v96.764M1326.4-78.116v96.764m-92.58 0h92.58m-92.58 0v96.764m92.58-96.764v96.764m-1296.107 0h-92.579m92.58 0h92.578m-92.579 0v96.764m-92.579-96.764v96.764m185.158-96.764h92.579m-92.579 0v96.764m92.579-96.764h92.579m-92.579 0v96.764m92.579-96.764h92.579m-92.579 0v96.764m92.579-96.764h92.579m-92.579 0v96.764m92.579-96.764h92.579m-92.579 0v96.764m92.579-96.764h92.579m-92.579 0v96.764m92.579-96.764h92.579m-92.579 0v96.764m92.579-96.764h92.58m-92.58 0v96.764m92.58-96.764h92.579m-92.579 0v96.764m92.579-96.764h92.576m-92.576 0v96.764m92.576-96.764h92.58m-92.58 0v96.764m92.58-96.764h92.58m-92.58 0v96.764m92.58-96.764h92.58m-92.58 0v96.764m92.58-96.764v96.764m-1296.107 0h-92.579m92.58 0h92.578m-92.579 0v96.765m-92.579-96.765v96.765m185.158-96.765h92.579m-92.579 0v96.765m92.579-96.765h92.579m-92.579 0v96.765m92.579-96.765h92.579m-92.579 0v96.765m92.579-96.765h92.579m-92.579 0v96.765m92.579-96.765h92.579m-92.579 0v96.765m92.579-96.765h92.579m-92.579 0v96.765m92.579-96.765h92.579m-92.579 0v96.765m92.579-96.765h92.58m-92.58 0v96.765m92.58-96.765h92.579m-92.579 0v96.765m92.579-96.765h92.576m-92.576 0v96.765m92.576-96.765h92.58m-92.58 0v96.765m92.58-96.765h92.58m-92.58 0v96.765m92.58-96.765h92.58m-92.58 0v96.765m92.58-96.765v96.765m-1296.107 0h-92.579m92.58 0h92.578m-92.579 0v96.765m-92.579-96.765v96.765m185.158-96.765h92.579m-92.579 0v96.765m92.579-96.765h92.579m-92.579 0v96.765m92.579-96.765h92.579m-92.579 0v96.765m92.579-96.765h92.579m-92.579 0v96.765m92.579-96.765h92.579m-92.579 0v96.765m92.579-96.765h92.579m-92.579 0v96.765m92.579-96.765h92.579m-92.579 0v96.765m92.579-96.765h92.58m-92.58 0v96.765m92.58-96.765h92.579m-92.579 0v96.765m92.579-96.765h92.576m-92.576 0v96.765m92.576-96.765h92.58m-92.58 0v96.765m92.58-96.765h92.58m-92.58 0v96.765m92.58-96.765h92.58m-92.58 0v96.765m92.58-96.765v96.765m-1296.107 0h-92.579m92.58 0h92.578m-92.579 0v96.763m-92.579-96.763v96.763m185.158-96.763h92.579m-92.579 0v96.763m92.579-96.763h92.579m-92.579 0v96.763m92.579-96.763h92.579m-92.579 0v96.763m92.579-96.763h92.579m-92.579 0v96.763m92.579-96.763h92.579m-92.579 0v96.763m92.579-96.763h92.579m-92.579 0v96.763m92.579-96.763h92.579m-92.579 0v96.763m92.579-96.763h92.58m-92.58 0v96.763m92.58-96.763h92.579m-92.579 0v96.763m92.579-96.763h92.576m-92.576 0v96.763m92.576-96.763h92.58m-92.58 0v96.763m92.58-96.763h92.58m-92.58 0v96.763m92.58-96.763h92.58m-92.58 0v96.763m92.58-96.763v96.763m-1296.107 0h-92.579m92.58 0h92.578m-92.579 0v96.765m-92.579-96.765v96.765m185.158-96.765h92.579m-92.579 0v96.765m92.579-96.765h92.579m-92.579 0v96.765m92.579-96.765h92.579m-92.579 0v96.765m92.579-96.765h92.579m-92.579 0v96.765m92.579-96.765h92.579m-92.579 0v96.765m92.579-96.765h92.579m-92.579 0v96.765m92.579-96.765h92.579m-92.579 0v96.765m92.579-96.765h92.58m-92.58 0v96.765m92.58-96.765h92.579m-92.579 0v96.765m92.579-96.765h92.576m-92.576 0v96.765m92.576-96.765h92.58m-92.58 0v96.765m92.58-96.765h92.58m-92.58 0v96.765m92.58-96.765h92.58m-92.58 0v96.765m92.58-96.765v96.765m-1296.107 0h-92.579m92.58 0h92.578m-92.579 0v96.764m-92.579-96.764v96.764m185.158-96.764h92.579m-92.579 0v96.764m92.579-96.764h92.579m-92.579 0v96.764m92.579-96.764h92.579m-92.579 0v96.764m92.579-96.764h92.579m-92.579 0v96.764m92.579-96.764h92.579m-92.579 0v96.764m92.579-96.764h92.579m-92.579 0v96.764m92.579-96.764h92.579m-92.579 0v96.764m92.579-96.764h92.58m-92.58 0v96.764m92.58-96.764h92.579m-92.579 0v96.764m92.579-96.764h92.576m-92.576 0v96.764m92.576-96.764h92.58m-92.58 0v96.764m92.58-96.764h92.58m-92.58 0v96.764m92.58-96.764h92.58m-92.58 0v96.764m92.58-96.764v96.764m-1296.107 0h-92.579m92.58 0h92.578m-92.579 0v96.765m-92.579-96.765v96.765m185.158-96.765h92.579m-92.579 0v96.765m92.579-96.765h92.579m-92.579 0v96.765m92.579-96.765h92.579m-92.579 0v96.765m92.579-96.765h92.579m-92.579 0v96.765m92.579-96.765h92.579m-92.579 0v96.765m92.579-96.765h92.579m-92.579 0v96.765m92.579-96.765h92.579m-92.579 0v96.765m92.579-96.765h92.58m-92.58 0v96.765m92.58-96.765h92.579m-92.579 0v96.765m92.579-96.765h92.576m-92.576 0v96.765m92.576-96.765h92.58m-92.58 0v96.765m92.58-96.765h92.58m-92.58 0v96.765m92.58-96.765h92.58m-92.58 0v96.765m92.58-96.765v96.765m-1296.107 0h-92.579m92.58 0h92.578m-92.579 0v96.765m-92.579-96.765v96.765m185.158-96.765h92.579m-92.579 0v96.765m92.579-96.765h92.579m-92.579 0v96.765m92.579-96.765h92.579m-92.579 0v96.765m92.579-96.765h92.579m-92.579 0v96.765m92.579-96.765h92.579m-92.579 0v96.765m92.579-96.765h92.579m-92.579 0v96.765m92.579-96.765h92.579m-92.579 0v96.765m92.579-96.765h92.58m-92.58 0v96.765m92.58-96.765h92.579m-92.579 0v96.765m92.579-96.765h92.576m-92.576 0v96.765m92.576-96.765h92.58m-92.58 0v96.765m92.58-96.765h92.58m-92.58 0v96.765m92.58-96.765h92.58m-92.58 0v96.765m92.58-96.765v96.765m-1296.107 0h-92.579m92.58 0h92.578m-92.579 0v96.763m-92.579-96.763v96.763m185.158-96.763h92.579m-92.579 0v96.763m92.579-96.763h92.579m-92.579 0v96.763m92.579-96.763h92.579m-92.579 0v96.763m92.579-96.763h92.579m-92.579 0v96.763m92.579-96.763h92.579m-92.579 0v96.763m92.579-96.763h92.579m-92.579 0v96.763m92.579-96.763h92.579m-92.579 0v96.763m92.579-96.763h92.58m-92.58 0v96.763m92.58-96.763h92.579m-92.579 0v96.763m92.579-96.763h92.576m-92.576 0v96.763m92.576-96.763h92.58m-92.58 0v96.763m92.58-96.763h92.58m-92.58 0v96.763m92.58-96.763h92.58m-92.58 0v96.763m92.58-96.763v96.763m-1296.107 0h-92.579m92.58 0h92.578m-92.579 0v96.769m-92.579-96.769v96.769m185.158-96.769h92.579m-92.579 0v96.769m92.579-96.769h92.579m-92.579 0v96.769m92.579-96.769h92.579m-92.579 0v96.769m92.579-96.769h92.579m-92.579 0v96.769m92.579-96.769h92.579m-92.579 0v96.769m92.579-96.769h92.579m-92.579 0v96.769m92.579-96.769h92.579m-92.579 0v96.769m92.579-96.769h92.58m-92.58 0v96.769m92.58-96.769h92.579m-92.579 0v96.769m92.579-96.769h92.576m-92.576 0v96.769m92.576-96.769h92.58m-92.58 0v96.769m92.58-96.769h92.58m-92.58 0v96.769m92.58-96.769h92.58m-92.58 0v96.769m92.58-96.769v96.769m-1296.107 0h-92.579m92.58 0h92.578m-92.579 0v96.76m-92.579-96.76v96.76m185.158-96.76h92.579m-92.579 0v96.76m92.579-96.76h92.579m-92.579 0v96.76m92.579-96.76h92.579m-92.579 0v96.76m92.579-96.76h92.579m-92.579 0v96.76m92.579-96.76h92.579m-92.579 0v96.76m92.579-96.76h92.579m-92.579 0v96.76m92.579-96.76h92.579m-92.579 0v96.76m92.579-96.76h92.58m-92.58 0v96.76m92.58-96.76h92.579m-92.579 0v96.76m92.579-96.76h92.576m-92.576 0v96.76m92.576-96.76h92.58m-92.58 0v96.76m92.58-96.76h92.58m-92.58 0v96.76m92.58-96.76h92.58m-92.58 0v96.76m92.58-96.76v96.76m-1296.107 0h-92.579m92.58 0h92.578m-92.579 0v96.76m-92.579-96.76v96.76h92.58m92.578-96.76h92.579m-92.579 0v96.76m92.579-96.76h92.579m-92.579 0v96.76m92.579-96.76h92.579m-92.579 0v96.76m92.579-96.76h92.579m-92.579 0v96.76m92.579-96.76h92.579m-92.579 0v96.76m92.579-96.76h92.579m-92.579 0v96.76m92.579-96.76h92.579m-92.579 0v96.76m92.579-96.76h92.58m-92.58 0v96.76m92.58-96.76h92.579m-92.579 0v96.76m92.579-96.76h92.576m-92.576 0v96.76m92.576-96.76h92.58m-92.58 0v96.76m92.58-96.76h92.58m-92.58 0v96.76m92.58-96.76h92.58m-92.58 0v96.76m92.58-96.76v96.76h-92.58m-1203.527 0h92.579m0 0h92.579m0 0h92.579m0 0h92.579m0 0h92.579m0 0h92.579m0 0h92.579m0 0h92.579m0 0h92.58m0 0h92.579m0 0h92.576m0 0h92.58m0 0h92.58" stroke="url(#f)" stroke-opacity=".2"/>
  <defs>
    <radialGradient id="a" cx="0" cy="0" r="1" gradientUnits="userSpaceOnUse" gradientTransform="matrix(-.8104 68.58171 -119.0157 -1.40634 263.361 601.534)">
      <stop stop-color="#fff" stop-opacity=".8"/>
      <stop offset="1" stop-color="#05041F"/>
    </radialGradient>
    <radialGradient id="b" cx="0" cy="0" r="1" gradientUnits="userSpaceOnUse" gradientTransform="matrix(0 72.8153 -126.361 0 632.69 310.266)">
      <stop stop-color="#fff" stop-opacity=".8"/>
      <stop offset="1" stop-color="#05041F"/>
    </radialGradient>
    <radialGradient id="c" cx="0" cy="0" r="1" gradientUnits="userSpaceOnUse" gradientTransform="rotate(91.981 -158.975 704.483)scale(70.317 122.039)">
      <stop stop-color="#fff" stop-opacity=".8"/>
      <stop offset="1" stop-color="#05041F"/>
    </radialGradient>
    <radialGradient id="d" cx="0" cy="0" r="1" gradientUnits="userSpaceOnUse" gradientTransform="matrix(-.81015 68.58182 -119.0157 -1.40593 912.224 697.208)">
      <stop stop-color="#fff" stop-opacity=".8"/>
      <stop offset="1" stop-color="#05041F"/>
    </radialGradient>
    <radialGradient id="e" cx="0" cy="0" r="1" gradientUnits="userSpaceOnUse" gradientTransform="matrix(0 74.5086 -129.299 0 632.751 599.839)">
      <stop stop-color="#fff" stop-opacity=".8"/>
      <stop offset="1" stop-color="#05041F"/>
    </radialGradient>
    <radialGradient id="f" cx="0" cy="0" r="1" gradientUnits="userSpaceOnUse" gradientTransform="scale(491.711 513.94)rotate(90 .107 1.18)">
      <stop stop-color="#fff"/>
      <stop offset="1" stop-color="#fff" stop-opacity="0"/>
    </radialGradient>
  </defs>
</svg>
